X: 1
T: Mild Mabel Kelly
M: 3/4
L: 1/8
R: waltz
K: Amin
|: d/c/ | A2 A2 Ac | d2 de de | dc AG Ac | d2 de d2 |
cB AG ED | C2 CD C2 | AG ED EG | A2 Ac A2 |
c2 ce ce | d2 de d2 | ed eg ag | e3 d c2 |
cB cd ed | cd cB AG | E>D CE GE | D2 DE ~D ||
D/C/ | A,2 A,2 DE | GE GA G2 | GE DC EG | A2 Ac A2 |
cB cd ed | cA cd eg | ag ed ce | d2 de d2 |
cB AG E>D | C2 CD C2 | AG ED EG | A2 Ac A2 |
c2 GE C2 | d2 cB AG | E>D CE GE | D2 DE ~D :|
